X:7
T:The Whoor Next Door
R:reel
C: 1975, 2010 L.E. McCullough  
M:4/4
L:1/8
K:Amix
gf|:e~A3 f~A3|g~A3 aged|B~G3 ~B3d|B~G3 (3B^cd gf| 
e~A3 f~A3|~g3a aged|(3B^cd ef gbaf|1gedB B~A3:|2(3gfe gd B~A3|]
|:a3b aged|(3B^cd ef gfgb|~a3b aged|(3B^cd gd B~A3|
~a3b aged|(3B^cd ef ~g3 a|b~g3 (3B^cd ef|1gedg e~A3:|2(3gfe dB B~A3|]

